X: 3300
T:Frost is all over, The
R:jig
D:Planxty
M:6/8
L:1/8
K:D
AFD DFA|ded B2A|ABA F2D|GFG EFG|!
AFD DFA|ded B2A|ABA F2E|1 FDD D3:|2 FDD D2e||!
|:fdd ede|fdd d2e|~f3 def|~g3 e2g|!
fed B2d|A2d F2G|ABA F2E|1 FDD D2e:|2 FDD D3|!
